static/fa/svgs/solid/clipboard-list.svg

<svg xmlns="http://www.w3.org/2000/svg" viewBox="0 0 384 512"><!--! Font Awesome Free 6.1.1 by @fontawesome - https://fontawesome.com License - https://fontawesome.com/license/free (Icons: CC BY 4.0, Fonts: SIL OFL 1.1, Code: MIT License) Copyright 2022 Fonticons, Inc.--><path d="M336 64h-53.88C268.9 26.8 233.7 0 192 0s-76.9 26.8-90.1 64H48C21.5 64 0 85.48 0 112v352c0 26.5 21.5 48 48 48h288c26.5 0 48-21.48 48-48V112c0-26.52-21.5-48-48-48zM96 392c-13.25 0-24-10.75-24-24s10.75-24 24-24 24 10.75 24 24-10.7 24-24 24zm0-96c-13.25 0-24-10.75-24-24s10.75-24 24-24 24 10.8 24 24-10.7 24-24 24zm96-232c17.67 0 32 14.33 32 32s-14.33 32-32 32-32-14.3-32-32c0-17.67 14.3-32 32-32zm112 320H176c-8.8 0-16-7.2-16-16s7.2-16 16-16h128c8.801 0 16 7.199 16 16 0 8.8-7.2 16-16 16zm0-96H176c-8.8 0-16-7.2-16-16s7.2-16 16-16h128c8.8 0 16 7.2 16 16s-7.2 16-16 16z"/></svg>

<svg xmlns="http://www.w3.org/2000/svg" viewBox="0 0 384 512"><!--! Font Awesome Free 6.1.1 by @fontawesome - https://fontawesome.com License - https://fontawesome.com/license/free (Icons: CC BY 4.0, Fonts: SIL OFL 1.1, Code: MIT License) Copyright 2022 Fonticons, Inc. --><path d="M336 64h-53.88C268.9 26.8 233.7 0 192 0S115.1 26.8 101.9 64H48C21.5 64 0 85.48 0 112v352C0 490.5 21.5 512 48 512h288c26.5 0 48-21.48 48-48v-352C384 85.48 362.5 64 336 64zM96 392c-13.25 0-24-10.75-24-24S82.75 344 96 344s24 10.75 24 24S109.3 392 96 392zM96 296c-13.25 0-24-10.75-24-24S82.75 248 96 248S120 258.8 120 272S109.3 296 96 296zM192 64c17.67 0 32 14.33 32 32c0 17.67-14.33 32-32 32S160 113.7 160 96C160 78.33 174.3 64 192 64zM304 384h-128C167.2 384 160 376.8 160 368C160 359.2 167.2 352 176 352h128c8.801 0 16 7.199 16 16C320 376.8 312.8 384 304 384zM304 288h-128C167.2 288 160 280.8 160 272C160 263.2 167.2 256 176 256h128C312.8 256 320 263.2 320 272C320 280.8 312.8 288 304 288z"/></svg>
